X: 33341
T: Queen Of May, The
R: hornpipe
M: 4/4
K: Gmajor
|:Bc|dB (3cBA Ggfg|ed^ce d3 c|(3Bcd ga gdBG|(3ABA (3GFE D2 Bc|
dB (3cBA Ggfg|ed^ce d3 c|(3Bcd ga bgaf|d2 g2 g2:|
|:cB|ADFA GBdg|eceg fdef|gabg afge|(3fgf (3efe d2 (3def|
gbgb fafa|egeg fdfd|cece dBGB|AF (3DEF G2:|
P: Last
AF (3DEF (3GBd Hg2|

